X: 152
T:Missa Sine nomine / Agnus Dei
N: Derived from Jos1202e-Missa_Sine_nomine-Agnus.krn
C: Josquin des Prez
%%abc-version 2.0
%%abcx-abcm2ps-target-version 5.9.1 (29 Sep 2008)
%%abc-creator hum2abc beta
%%abcx-conversion-date 2019/02/12 16:15:45
%%abc-edited-by Jesse Rodin
%%abc-edited-by Jesse Rodin; Victoria Chang 2011/04/01/
%%abcx-initial-encoding-date 2011/04/01/
%%humdrum-veritas 1547533422
%%humdrum-veritas-data 470280030
%%linebreak <none>
%%barnumbers 0
L: 1/4
M: 3/1
Q: 1/2=120
%%staves [1 2 3 4]
V: 1 clef=treble
V: 2 clef=treble-8
V: 3 clef=treble-8
V: 4 clef=bass
K: C
[V:1] A8A4 | 
[V:2] A3Bc2d2c2d2 | 
[V:3] z12 | 
[V:4] z12 | 
[V:1] A6F2G4 | 
[V:2] A2d2c2d2B4 | 
[V:3] z12 | 
[V:4] z12 | 
[V:1] A4E2A2G2A2 | 
[V:2] z2A2c3de2A2 | 
[V:3] z12 | 
[V:4] z12 | 
[V:1] E2A2G2A2F4 | 
[V:2] c3de2c2d2A2- | 
[V:3] z12 | 
[V:4] z12 | 
[V:1] E4c4c4 | 
[V:2] ABcde2f2e2A2 | 
[V:3] z12 | 
[V:4] A,8A,4 | 
[V:1] c6A2B4 | 
[V:2] c3de2f2d2e2- | 
[V:3] z12 | 
[V:4] A,6F,2G,4 | 
[V:1] c4z2c2B2c2 | 
[V:2] edc2B2A2z2c2 | 
[V:3] e8e4 | 
[V:4] A,4E,2A,2G,2A,2 | 
[V:1] G2A2B2c2A4 | 
[V:2] BAc2B2A3GA2 | 
[V:3] e6c2d4 | 
[V:4] E,2A,2G,2A,2F,4 | 
[V:1] G4G3AB2GA | 
[V:2] B2e3dc2B2E2 | 
[V:3] e4B2e2d2e2 | 
[V:4] E,8z4 | 
[V:1] B2c3BB4A2 | 
[V:2] G2E2G4A4 | 
[V:3] B2e2d2e2c4 | 
[V:4] z12 | 
[V:1] B6G2G4 | 
[V:2] z2E2G3AB2c2- | 
[V:3] B8z4 | 
[V:4] E,4E,4E,4 | 
[V:1] A4A4A4 | 
[V:2] cBc2d2e4d2 | 
[V:3] z12 | 
[V:4] F,8F,4 | 
[V:1] G8z4 | 
[V:2] e4E4F4 | 
[V:3] B4B4B4 | 
[V:4] E,2G,4E,2D,4 | 
[V:1] E3FG2A3GE2 | 
[V:2] G2A2E2F2E2G2- | 
[V:3] c8c4 | 
[V:4] C,4z4C,4 | 
[V:1] D4z2G2A2F2 | 
[V:2] GABcd2e4d2 | 
[V:3] B2d4B2A4 | 
[V:4] G,8F,4 | 
[V:1] G3FEDD4G2 | 
[V:2] c2B3AA2z2G2 | 
[V:3] G4z4G4 | 
[V:4] E,2G,3F,D,2E,4 | 
[V:1] F2D3EF2G2A2 | 
[V:2] A2B4A2z2A2 | 
[V:3] d8c4 | 
[V:4] D,4z2D,2E,2F,2 | 
[V:1] D2B3AA4^G2 | 
[V:2] B2G2d4e4 | 
[V:3] B2d3cA2B4 | 
[V:4] G,3F,D,2F,2E,4 | 
[V:1] A2c2B2A2G2E2 | 
[V:2] c4d4z2G2 | 
[V:3] A4z2A2B2c2 | 
[V:4] z2A,2G,2F,2E,4 | 
[V:1] F3GE8 | 
[V:2] A2B2c2A2E4 | 
[V:3] d3cA2c2B4 | 
[V:4] D,4z2A,4G,2 | 
[V:1] z2G2A4B4 | 
[V:2] c4A4d3B | 
[V:3] z2e2d2c2B4 | 
[V:4] A,2E,2F,4G,4 | 
[V:1] E2A3Bc4BA | 
[V:2] c2d2c2A3GA2 | 
[V:3] A4z2e4d2 | 
[V:4] A,2D,2A,3G,F,4 | 
[V:1] G4z4F4 | 
[V:2] B4z2G2A2F2 | 
[V:3] e2B2c4d4 | 
[V:4] E,2G,2F,2E,2D,4 | 
[V:1] G2A2G2A2E2A2 | 
[V:2] c4c3de2f2 | 
[V:3] e2A2e3dc4 | 
[V:4] C,2F,2E,2A,4F,2 | 
[V:1] G2F3EE4D2 | 
[V:2] d4G4z2A2 | 
[V:3] B2d2c2B2A4 | 
[V:4] G,2D,2E,2G,2F,4 | 
[V:1] E4z2E2G3A | 
[V:2] B2e3dc3BA2 | 
[V:3] G2c2B2e4c2 | 
[V:4] E,8z4 | 
[V:1] B2c3BB2A3G | 
[V:2] G2c2d4e4 | 
[V:3] d2A2B2d2c4 | 
[V:4] z12 | 
[V:1] G12 ||  
[V:2] e12 ||  
[V:3] B12 ||  
[V:4] E,12 ||  
[V:1]  [K:C] [K:clef=treble][M:2/1]z8 | 
[V:2]  [K:C] [K:clef=treble-8][M:2/1]e6dc | 
[V:3]  [K:C] [K:clef=treble-8][M:2/1]z8 | 
[V:4]  [K:C] [K:clef=bass][M:2/1]z8 | 
[V:1] z8 | 
[V:2] B4d4 | 
[V:3] d6cB | 
[V:4] z8 | 
[V:1] z8 | 
[V:2] c4A4 | 
[V:3] A4c4 | 
[V:4] z8 | 
[V:1] z8 | 
[V:2] z2d2e2d2 | 
[V:3] B4G4 | 
[V:4] z8 | 
[V:1] z8 | 
[V:2] c3AB2A2 | 
[V:3] z2c2d2c2 | 
[V:4] z8 | 
[V:1] z8 | 
[V:2] z2d2c2B2 | 
[V:3] B3GA2G2 | 
[V:4] z8 | 
[V:1] z8 | 
[V:2] e4d2c2 | 
[V:3] z2c2B2A2 | 
[V:4] z8 | 
[V:1] z8 | 
[V:2] B4A2d2- | 
[V:3] d4c2B2 | 
[V:4] z8 | 
[V:1] z8 | 
[V:2] d2c2e4 | 
[V:3] A4G2c2- | 
[V:4] z8 | 
[V:1] z8 | 
[V:2] d6cB | 
[V:3] c2B2d4 | 
[V:4] z8 | 
[V:1] z8 | 
[V:2] A4z2A2 | 
[V:3] c6BA | 
[V:4] z8 | 
[V:1] z8 | 
[V:2] B2d3cdB | 
[V:3] G4z2G2 | 
[V:4] z8 | 
[V:1] z8 | 
[V:2] c2e3dec | 
[V:3] A2c3BcA | 
[V:4] z8 | 
[V:1] z8 | 
[V:2] d2B2d3c | 
[V:3] B2d3cdB | 
[V:4] z8 | 
[V:1] z8 | 
[V:2] A4z2c2- | 
[V:3] c2A2c3B | 
[V:4] z8 | 
[V:1] z8 | 
[V:2] c2B2d4 | 
[V:3] G4z2B2- | 
[V:4] z8 | 
[V:1] z8 | 
[V:2] c6BA | 
[V:3] B2A2c4 | 
[V:4] z8 | 
[V:1] z8 ||  
[V:2] G8 ||  
[V:3] B8 ||  
[V:4] z8 ||  
[V:1]  [K:C] [K:clef=treble][M:2/1]z8 | 
[V:2]  [K:C] [K:clef=treble-8][M:2/1]z8 | 
[V:3]  [K:C] [K:clef=treble-8][M:2/1]z8 | 
[V:4]  [K:C] [K:clef=bass][M:2/1]A,4C4 | 
[V:1] z8 | 
[V:2] z4e4 | 
[V:3] z8 | 
[V:4] B,2A,4G,F, | 
[V:1] z8 | 
[V:2] g4f2e2- | 
[V:3] z8 | 
[V:4] E,4z4 | 
[V:1] z8 | 
[V:2] e2dcB4 | 
[V:3] z8 | 
[V:4] G,6F,G, | 
[V:1] z8 | 
[V:2] z4d4- | 
[V:3] z8 | 
[V:4] A,2G,4F,E, | 
[V:1] z8 | 
[V:2] d2cde2d2- | 
[V:3] z8 | 
[V:4] D,4z4 | 
[V:1] A4c4 | 
[V:2] d2cBA4 | 
[V:3] z8 | 
[V:4] F,6E,F, | 
[V:1] B2A4GF | 
[V:2] z4A4 | 
[V:3] z8 | 
[V:4] G,2F,4E,D, | 
[V:1] E8 | 
[V:2] c6Bc | 
[V:3] A4c4 | 
[V:4] A,8 | 
[V:1] z8 | 
[V:2] d2c4BA | 
[V:3] B2A4GF | 
[V:4] z4A,,4 | 
[V:1] G6FG | 
[V:2] e8 | 
[V:3] E8 | 
[V:4] C,8- | 
[V:1] A2G4FE | 
[V:2] c4B4 | 
[V:3] z8 | 
[V:4] C,4G,,4- | 
[V:1] D8 | 
[V:2] z2B4AB | 
[V:3] G6FG | 
[V:4] G,,4G,,4 | 
[V:1] z8 | 
[V:2] c2B2d4- | 
[V:3] A2G4FE | 
[V:4] z4G,4 | 
[V:1] F4A4 | 
[V:2] d2cBA3B | 
[V:3] D8 | 
[V:4] F,6E,D, | 
[V:1] G2F4ED | 
[V:2] c2d2A4- | 
[V:3] z8 | 
[V:4] E,2D,2F,4- | 
[V:1] C8 | 
[V:2] A4z2c2- | 
[V:3] F4A4 | 
[V:4] F,4F,4 | 
[V:1] z8 | 
[V:2] c2A2B2A2- | 
[V:3] G2F4ED | 
[V:4] C,2D,4C,B,, | 
[V:1] z4C4 | 
[V:2] A2GFE4 | 
[V:3] C8 | 
[V:4] A,,8 | 
[V:1] D4E4 | 
[V:2] D2F2E2A2- | 
[V:3] z8 | 
[V:4] D,4C,2A,,2 | 
[V:1] F4E4 | 
[V:2] AGABc4 | 
[V:3] z4C4 | 
[V:4] D,4A,,4 | 
[V:1] F4G4 | 
[V:2] F2A3Gc2- | 
[V:3] D4E4 | 
[V:4] D,4C,4 | 
[V:1] C8 | 
[V:2] c2BAG4 | 
[V:3] F4E4 | 
[V:4] z4C,4 | 
[V:1] z8 | 
[V:2] F4z4 | 
[V:3] F4G4 | 
[V:4] D,4E,4- | 
[V:1] z4E4 | 
[V:2] G4A4- | 
[V:3] C8 | 
[V:4] E,4A,,4 | 
[V:1] F4G4 | 
[V:2] A2B2B2c2 | 
[V:3] z8 | 
[V:4] D,4E,4 | 
[V:1] A4G4 | 
[V:2] A2c4B2- | 
[V:3] z4E4 | 
[V:4] F,3E,C,2E,2 | 
[V:1] A4B4 | 
[V:2] B2A2z2d2 | 
[V:3] F4G4 | 
[V:4] D,3C,B,,4 | 
[V:1] E8 | 
[V:2] c2A2B2c2 | 
[V:3] A4G4 | 
[V:4] A,,4E,4 | 
[V:1] z8 | 
[V:2] c2A2d4 | 
[V:3] A4B4 | 
[V:4] C,2D,2B,,4 | 
[V:1] z4G4 | 
[V:2] c4B2c2- | 
[V:3] E8 | 
[V:4] A,,4z2E,2 | 
[V:1] A4B4 | 
[V:2] c2d2d2e2 | 
[V:3] z8 | 
[V:4] F,4G,4 | 
[V:1] c4B4 | 
[V:2] c2e4d2- | 
[V:3] z4G4 | 
[V:4] A,3G,E,2G,2 | 
[V:1] c4d4 | 
[V:2] d2c2z2f2 | 
[V:3] A4B4 | 
[V:4] F,3E,D,4 | 
[V:1] G8 | 
[V:2] e2c2d2e2- | 
[V:3] c4B4 | 
[V:4] C,4G,4 | 
[V:1] z8 | 
[V:2] edc4B2 | 
[V:3] c4d4 | 
[V:4] E,2F,2D,4 | 
[V:1] z4G4 | 
[V:2] c4B2c2- | 
[V:3] G8 | 
[V:4] C,4E,4 | 
[V:1] A4B4 | 
[V:2] c2d4e2 | 
[V:3] z8 | 
[V:4] F,4G,4 | 
[V:1] c6B2 | 
[V:2] c2e3dB2 | 
[V:3] z4G4 | 
[V:4] A,3G,E,2G,2 | 
[V:1] A2G2F4 | 
[V:2] c4d4 | 
[V:3] A4B4 | 
[V:4] F,2E,2D,4 | 
[V:1] E8 | 
[V:2] G2cdefg2 | 
[V:3] c6B2 | 
[V:4] C,8 | 
[V:1] z8 | 
[V:2] f2e4d2 | 
[V:3] A2G2F4 | 
[V:4] z8 | 
[V:1] z4B4 | 
[V:2] e2c2B2e2- | 
[V:3] E8 | 
[V:4] z4G,4 | 
[V:1] c4d4 | 
[V:2] e2f2d2g2 | 
[V:3] z8 | 
[V:4] A,4B,4 | 
[V:1] e6d2 | 
[V:2] e2g3fg2 | 
[V:3] z4B4 | 
[V:4] C4G,4 | 
[V:1] c2B2A4 | 
[V:2] e4z2A2 | 
[V:3] c4d4 | 
[V:4] A,2E,2F,4 | 
[V:1] G8 | 
[V:2] B2c2GABc | 
[V:3] e6d2 | 
[V:4] E,8 | 
[V:1] z8 | 
[V:2] AGg4^f2 | 
[V:3] c2B2A4 | 
[V:4] z8 | 
[V:1] z4G4 | 
[V:2] g2G3ABc | 
[V:3] G8 | 
[V:4] z4E,4 | 
[V:1] A4B4 | 
[V:2] A2d4e2 | 
[V:3] z8 | 
[V:4] F,4G,4 | 
[V:1] c3Bc2B2- | 
[V:2] c2e3dB2 | 
[V:3] z4G4 | 
[V:4] A,3G,E,2G,2 | 
[V:1] BAA4^G2 | 
[V:2] c2d2e2E2- | 
[V:3] A4B4 | 
[V:4] F,4E,4 | 
[V:1] A4z2G2 | 
[V:2] E2A2G3E | 
[V:3] c3Bc2B2- | 
[V:4] A,,4E,4 | 
[V:1] A4B4 | 
[V:2] F2E4D2 | 
[V:3] BAA4^G2 | 
[V:4] D,2C,2B,,4 | 
[V:1] c3Bc2B2- | 
[V:2] E2e3de2 | 
[V:3] A4z2G2 | 
[V:4] A,,4E,4 | 
[V:1] BAA4^G2 | 
[V:2] c2d2e2E2- | 
[V:3] A4B4 | 
[V:4] F,4E,4 | 
[V:1] A4z4 | 
[V:2] E2A2G3E | 
[V:3] c3Bc2B2- | 
[V:4] A,,4E,4 | 
[V:1] z8 | 
[V:2] F2E4D2 | 
[V:3] BAA4^G2 | 
[V:4] D,2C,2B,,4 | 
[V:1] A8 | 
[V:2] E2F2E2F2- | 
[V:3] A8- | 
[V:4] A,,3B,,C,2D,2- | 
[V:1] A8- | 
[V:2] FDE2F4 | 
[V:3] A8- | 
[V:4] D,2C,2D,4 | 
[V:1] A8 |]  
[V:2] E8 |]  
[V:3] A8 |]  
[V:4] A,,8 |]  



